icons/plus-circle.svg

<svg width="24" height="24" viewBox="0 0 24 24" fill="none" xmlns="http://www.w3.org/2000/svg">
<mask id="path-1-inside-1" fill="white">
<path fill-rule="evenodd" clip-rule="evenodd" d="M12 20.5C16.6944 20.5 20.5 16.6944 20.5 12C20.5 7.30558 16.6944 3.5 12 3.5C7.30558 3.5 3.5 7.30558 3.5 12C3.5 16.6944 7.30558 20.5 12 20.5ZM11.25 16V12.75H8V11.25H11.25V8H12.75V11.25H16V12.75H12.75V16H11.25Z"/>
</mask>
<path fill-rule="evenodd" clip-rule="evenodd" d="M12 20.5C16.6944 20.5 20.5 16.6944 20.5 12C20.5 7.30558 16.6944 3.5 12 3.5C7.30558 3.5 3.5 7.30558 3.5 12C3.5 16.6944 7.30558 20.5 12 20.5ZM11.25 16V12.75H8V11.25H11.25V8H12.75V11.25H16V12.75H12.75V16H11.25Z" fill="#222222"/>
<path d="M11.25 12.75H12.75V11.25H11.25V12.75ZM11.25 16H9.75003V17.5H11.25V16ZM8 12.75H6.5V14.25H8V12.75ZM8 11.25V9.75002H6.5V11.25H8ZM11.25 11.25V12.75H12.75V11.25H11.25ZM11.25 8V6.5H9.75003V8H11.25ZM12.75 8H14.25V6.5H12.75V8ZM12.75 11.25H11.25V12.75H12.75V11.25ZM16 11.25H17.5V9.75002H16V11.25ZM16 12.75V14.25H17.5V12.75H16ZM12.75 12.75V11.25H11.25V12.75H12.75ZM12.75 16V17.5H14.25V16H12.75ZM19 12C19 15.866 15.866 19 12 19V22C17.5228 22 22 17.5228 22 12H19ZM12 5C15.866 5 19 8.13401 19 12H22C22 6.47715 17.5228 2 12 2V5ZM5 12C5 8.13401 8.13401 5 12 5V2C6.47715 2 2 6.47715 2 12H5ZM12 19C8.13401 19 5 15.866 5 12H2C2 17.5228 6.47715 22 12 22V19ZM9.75003 12.75V16H12.75V12.75H9.75003ZM8 14.25H11.25V11.25H8V14.25ZM6.5 11.25V12.75H9.5V11.25H6.5ZM11.25 9.75002H8V12.75H11.25V9.75002ZM9.75003 8V11.25H12.75V8H9.75003ZM12.75 6.5H11.25V9.5H12.75V6.5ZM14.25 11.25V8H11.25V11.25H14.25ZM16 9.75002H12.75V12.75H16V9.75002ZM17.5 12.75V11.25H14.5V12.75H17.5ZM12.75 14.25H16V11.25H12.75V14.25ZM14.25 16V12.75H11.25V16H14.25ZM11.25 17.5H12.75V14.5H11.25V17.5Z" fill="#222222" mask="url(#path-1-inside-1)"/>
</svg>

<svg xmlns="http://www.w3.org/2000/svg" width="24" height="24" viewBox="0 0 24 24">
    <mask id="idjb7k2swa" fill="#fff">
        <path fill-rule="evenodd"
            d="M12 20.5c4.694 0 8.5-3.806 8.5-8.5S16.694 3.5 12 3.5 3.5 7.306 3.5 12s3.806 8.5 8.5 8.5zm-.75-4.5v-3.25H8v-1.5h3.25V8h1.5v3.25H16v1.5h-3.25V16h-1.5z"
            clip-rule="evenodd" />
    </mask>
    <path fill="#222" fill-rule="evenodd"
        d="M12 20.5c4.694 0 8.5-3.806 8.5-8.5S16.694 3.5 12 3.5 3.5 7.306 3.5 12s3.806 8.5 8.5 8.5zm-.75-4.5v-3.25H8v-1.5h3.25V8h1.5v3.25H16v1.5h-3.25V16h-1.5z"
        clip-rule="evenodd" />
    <path fill="#222"
        d="M11.25 12.75h1.5v-1.5h-1.5v1.5zm0 3.25h-1.5v1.5h1.5V16zM8 12.75H6.5v1.5H8v-1.5zm0-1.5v-1.5H6.5v1.5H8zm3.25 0v1.5h1.5v-1.5h-1.5zm0-3.25V6.5h-1.5V8h1.5zm1.5 0h1.5V6.5h-1.5V8zm0 3.25h-1.5v1.5h1.5v-1.5zm3.25 0h1.5v-1.5H16v1.5zm0 1.5v1.5h1.5v-1.5H16zm-3.25 0v-1.5h-1.5v1.5h1.5zm0 3.25v1.5h1.5V16h-1.5zM19 12c0 3.866-3.134 7-7 7v3c5.523 0 10-4.477 10-10h-3zm-7-7c3.866 0 7 3.134 7 7h3c0-5.523-4.477-10-10-10v3zm-7 7c0-3.866 3.134-7 7-7V2C6.477 2 2 6.477 2 12h3zm7 7c-3.866 0-7-3.134-7-7H2c0 5.523 4.477 10 10 10v-3zm-2.25-6.25V16h3v-3.25h-3zM8 14.25h3.25v-3H8v3zm-1.5-3v1.5h3v-1.5h-3zm4.75-1.5H8v3h3.25v-3zM9.75 8v3.25h3V8h-3zm3-1.5h-1.5v3h1.5v-3zm1.5 4.75V8h-3v3.25h3zM16 9.75h-3.25v3H16v-3zm1.5 3v-1.5h-3v1.5h3zm-4.75 1.5H16v-3h-3.25v3zm1.5 1.75v-3.25h-3V16h3zm-3 1.5h1.5v-3h-1.5v3z"
        mask="url(#idjb7k2swa)" />
</svg>
